material/.icons/material/format-align-top.svg

<svg xmlns="http://www.w3.org/2000/svg" viewBox="0 0 24 24"><path d="M13 15l2.5 2.5 1.42-1.42L12 11.16l-4.92 4.92L8.5 17.5 11 15v6h2v-6M3 3h18v2H3V3m0 4h10v2H3V7z"/></svg>

<?xml version="1.0" encoding="UTF-8"?><!DOCTYPE svg PUBLIC "-//W3C//DTD SVG 1.1//EN" "http://www.w3.org/Graphics/SVG/1.1/DTD/svg11.dtd"><svg xmlns="http://www.w3.org/2000/svg" xmlns:xlink="http://www.w3.org/1999/xlink" version="1.1" id="mdi-format-align-top" width="24" height="24" viewBox="0 0 24 24"><path d="M13,15L15.5,17.5L16.92,16.08L12,11.16L7.08,16.08L8.5,17.5L11,15V21H13V15M3,3H21V5H3V3M3,7H13V9H3V7Z" /></svg>
